X:1
T: Martin's Onehorned Cow
C:
R:Jig
Q:180
K:D
M:6/8
L:1/16
F4A2 A2F2A2|B2G2B2 A2F2D2|F4A2 A2F2D2|E2F2E2 E4D2|F4A2 A2F2A2|B2G2B2 A2F2D2|F2A2F2 G2E2C2|D2E2D2 D6|
F4A2 A2F2A2|B2G2B2 A2F2D2|F4A2 A2F2D2|E2F2E2 E4D2|F4A2 A2F2A2|B2G2B2 A2F2D2|F2A2F2 G2E2C2|D2E2D2 D6|
d4B2 c2B2A2|Bcd2B2 A2F2D2|d4B2 c2A2F2|E2F2E2 E2F2A2|d4B2 c2B2A2|Bcd2B2 A2F2D2|F2A2F2 G2E2C2|D2E2D2 D6|
d4B2 c2B2A2|Bcd2B2 A2F2D2|d4B2 c2A2F2|E2F2E2 E2F2A2|d4B2 c2B2A2|Bcd2B2 A2F2D2|F2A2F2 G2E2C2|D2E2D2 D6||
